src/images/icons/ig.svg

<svg fill="none" height="78" viewBox="0 0 78 78" width="78" xmlns="http://www.w3.org/2000/svg"><g fill="#fcfb63"><path d="m53.7407 0h-29.1112c-13.3961 0-24.259383 10.8633-24.259383 24.2593v29.1112c0 13.396 10.863283 24.2594 24.259383 24.2594h29.1112c13.396 0 24.2593-10.8634 24.2593-24.2594v-29.1112c0-13.396-10.8633-24.2593-24.2593-24.2593zm16.9815 53.3705c0 9.3641-7.6174 16.9816-16.9815 16.9816h-29.1112c-9.3641 0-16.98158-7.6175-16.98158-16.9816v-29.1112c0-9.3641 7.61748-16.9815 16.98158-16.9815h29.1112c9.3641 0 16.9815 7.6174 16.9815 16.9815z"/><path d="m39.1848 19.4075c-10.7178 0-19.4075 8.6897-19.4075 19.4074 0 10.7178 8.6897 19.4075 19.4075 19.4075s19.4075-8.6897 19.4075-19.4075c0-10.7177-8.6897-19.4074-19.4075-19.4074zm0 31.5371c-6.6859 0-12.1297-5.4438-12.1297-12.1297 0-6.6907 5.4438-12.1296 12.1297-12.1296s12.1297 5.4389 12.1297 12.1296c0 6.6859-5.4438 12.1297-12.1297 12.1297z"/><path d="m60.0489 20.538c1.4283 0 2.5861-1.1578 2.5861-2.586 0-1.4283-1.1578-2.5861-2.5861-2.5861-1.4282 0-2.586 1.1578-2.586 2.5861 0 1.4282 1.1578 2.586 2.586 2.586z"/></g></svg>

<svg width="78" height="78" viewBox="0 0 78 78" fill="none" xmlns="http://www.w3.org/2000/svg">
<path d="M53.7407 0H24.6295C11.2334 0 0.370117 10.8633 0.370117 24.2593V53.3705C0.370117 66.7665 11.2334 77.6299 24.6295 77.6299H53.7407C67.1367 77.6299 78 66.7665 78 53.3705V24.2593C78 10.8633 67.1367 0 53.7407 0ZM70.7222 53.3705C70.7222 62.7346 63.1048 70.3521 53.7407 70.3521H24.6295C15.2654 70.3521 7.64792 62.7346 7.64792 53.3705V24.2593C7.64792 14.8952 15.2654 7.2778 24.6295 7.2778H53.7407C63.1048 7.2778 70.7222 14.8952 70.7222 24.2593V53.3705Z" fill="#FCFB63"/>
<path d="M39.1848 19.4075C28.467 19.4075 19.7773 28.0972 19.7773 38.8149C19.7773 49.5327 28.467 58.2224 39.1848 58.2224C49.9026 58.2224 58.5923 49.5327 58.5923 38.8149C58.5923 28.0972 49.9026 19.4075 39.1848 19.4075ZM39.1848 50.9446C32.4989 50.9446 27.0551 45.5008 27.0551 38.8149C27.0551 32.1242 32.4989 26.6853 39.1848 26.6853C45.8707 26.6853 51.3145 32.1242 51.3145 38.8149C51.3145 45.5008 45.8707 50.9446 39.1848 50.9446Z" fill="#FCFB63"/>
<path d="M60.0489 20.538C61.4772 20.538 62.635 19.3802 62.635 17.952C62.635 16.5237 61.4772 15.3659 60.0489 15.3659C58.6207 15.3659 57.4629 16.5237 57.4629 17.952C57.4629 19.3802 58.6207 20.538 60.0489 20.538Z" fill="#FCFB63"/>
</svg>
